src/archive/streamy/streamy.svg

<svg viewBox="-3 -3.4 107 107" xmlns="http://www.w3.org/2000/svg"><circle cx="50" cy="50" fill="#314254" r="49.5"/><path d="m99.4 52.5-17.8-17.8-31.7 23.6-9.3-9.3-16.7 16.7 33.2 33.3a49.5 49.5 0 0 0 42.3-46.5z" fill="#010101" opacity=".1"/><g fill="#82bb41"><path d="m40.7 52-13.9 13.8c-1.3 1.3-3.5.4-3.5-1.4v-27.7c0-1.8 2.2-2.7 3.5-1.4l13.8 13.9c.9.7.9 2 .1 2.8z"/><path d="m46.9 69.3h-11.8l17.3-17.3a2 2 0 0 0 0-2.9l-14.5-14.4h11.8l10 10 10-10h11.8z"/></g></svg>

<svg xmlns="http://www.w3.org/2000/svg" viewBox="-3 -3.4 107 107"><circle cx="50" cy="50" r="49.5" fill="#314254"/><path fill="#010101" d="M99.4 52.5L81.6 34.7 49.9 58.3 40.6 49 23.9 65.7 57.1 99a49.5 49.5 0 0 0 42.3-46.5z" opacity=".1"/><g fill="#82bb41"><path d="M40.7 52L26.8 65.8c-1.3 1.3-3.5.4-3.5-1.4V36.7c0-1.8 2.2-2.7 3.5-1.4l13.8 13.9c.9.7.9 2 .1 2.8z"/><path d="M46.9 69.3H35.1L52.4 52a2 2 0 0 0 0-2.9L37.9 34.7h11.8l10 10 10-10h11.8z"/></g></svg>
